amber.cal
CAL    

DESCRIPTOR "Argyll Device Calibration Curves"
ORIGINATOR "Argyll synthcal"
CREATED "Tue Mar 19 20:08:17 2013"
KEYWORD "DEVICE_CLASS"
DEVICE_CLASS "DISPLAY"
KEYWORD "COLOR_REP"
COLOR_REP "RGB"

KEYWORD "RGB_I"
NUMBER_OF_FIELDS 4
BEGIN_DATA_FORMAT
RGB_I RGB_R RGB_G RGB_B 
END_DATA_FORMAT

NUMBER_OF_SETS 256
BEGIN_DATA
0.0000 0.0000 0.0000 0.0000 
3.9216e-03 3.9063e-03 2.1363e-03 1.8311e-04 
7.8431e-03 7.8126e-03 4.2878e-03 3.8148e-04 
0.011765 0.011719 6.4393e-03 5.7984e-04 
0.015686 0.015625 8.5908e-03 7.7821e-04 
0.019608 0.019532 0.010742 9.7658e-04 
0.023529 0.023438 0.012879 1.1597e-03 
0.027451 0.027344 0.015030 1.3581e-03 
0.031373 0.031250 0.017182 1.5564e-03 
0.035294 0.035157 0.019333 1.7548e-03 
0.039216 0.039063 0.021485 1.9532e-03 
0.043137 0.042969 0.023621 2.1363e-03 
0.047059 0.046876 0.025772 2.3346e-03 
0.050980 0.050782 0.027924 2.5330e-03 
0.054902 0.054688 0.030076 2.7314e-03 
0.058824 0.058595 0.032227 2.9297e-03 
0.062745 0.062501 0.034363 3.1128e-03 
0.066667 0.066407 0.036515 3.3112e-03 
0.070588 0.070314 0.038666 3.5096e-03 
0.074510 0.074220 0.040818 3.7079e-03 
0.078431 0.078126 0.042969 3.9063e-03 
0.082353 0.082033 0.045106 4.0894e-03 
0.086275 0.085939 0.047257 4.2878e-03 
0.090196 0.089845 0.049409 4.4862e-03 
0.094118 0.093751 0.051560 4.6845e-03 
0.098039 0.097658 0.053712 4.8829e-03 
0.10196 0.10156 0.055848 5.0660e-03 
0.10588 0.10547 0.058000 5.2644e-03 
0.10980 0.10938 0.060151 5.4627e-03 
0.11373 0.11328 0.062303 5.6611e-03 
0.11765 0.11719 0.064454 5.8595e-03 
0.12157 0.12110 0.066590 6.0426e-03 
0.12549 0.12500 0.068742 6.2409e-03 
0.12941 0.12891 0.070893 6.4393e-03 
0.13333 0.13281 0.073045 6.6377e-03 
0.13725 0.13672 0.075196 6.8360e-03 
0.14118 0.14063 0.077333 7.0192e-03 
0.14510 0.14453 0.079484 7.2175e-03 
0.14902 0.14844 0.081636 7.4159e-03 
0.15294 0.15235 0.083787 7.6143e-03 
0.15686 0.15625 0.085939 7.8126e-03 
0.16078 0.16016 0.088075 7.9957e-03 
0.16471 0.16407 0.090227 8.1941e-03 
0.16863 0.16797 0.092378 8.3925e-03 
0.17255 0.17188 0.094530 8.5908e-03 
0.17647 0.17578 0.096681 8.7892e-03 
0.18039 0.17969 0.098817 8.9723e-03 
0.18431 0.18360 0.10097 9.1707e-03 
0.18824 0.18750 0.10312 9.3690e-03 
0.19216 0.19141 0.10527 9.5674e-03 
0.19608 0.19532 0.10742 9.7658e-03 
0.20000 0.19922 0.10956 9.9489e-03 
0.20392 0.20313 0.11171 0.010147 
0.20784 0.20703 0.11386 0.010346 
0.21176 0.21094 0.11601 0.010544 
0.21569 0.21485 0.11817 0.010742 
0.21961 0.21875 0.12030 0.010925 
0.22353 0.22266 0.12245 0.011124 
0.22745 0.22657 0.12461 0.011322 
0.23137 0.23047 0.12676 0.011521 
0.23529 0.23438 0.12891 0.011719 
0.23922 0.23828 0.13104 0.011902 
0.24314 0.24219 0.13320 0.012100 
0.24706 0.24610 0.13535 0.012299 
0.25098 0.25000 0.13750 0.012497 
0.25490 0.25391 0.13965 0.012696 
0.25882 0.25782 0.14179 0.012879 
0.26275 0.26172 0.14394 0.013077 
0.26667 0.26563 0.14609 0.013275 
0.27059 0.26954 0.14824 0.013474 
0.27451 0.27344 0.15039 0.013672 
0.27843 0.27735 0.15253 0.013855 
0.28235 0.28125 0.15468 0.014054 
0.28627 0.28516 0.15683 0.014252 
0.29020 0.28907 0.15898 0.014450 
0.29412 0.29297 0.16114 0.014649 
0.29804 0.29688 0.16327 0.014832 
0.30196 0.30079 0.16542 0.015030 
0.30588 0.30469 0.16757 0.015229 
0.30980 0.30860 0.16973 0.015427 
0.31373 0.31250 0.17188 0.015625 
0.31765 0.31641 0.17401 0.015808 
0.32157 0.32032 0.17617 0.016007 
0.32549 0.32422 0.17832 0.016205 
0.32941 0.32813 0.18047 0.016403 
0.33333 0.33204 0.18262 0.016602 
0.33725 0.33594 0.18476 0.016785 
0.34118 0.33985 0.18691 0.016983 
0.34510 0.34376 0.18906 0.017182 
0.34902 0.34766 0.19121 0.017380 
0.35294 0.35157 0.19336 0.017578 
0.35686 0.35547 0.19550 0.017762 
0.36078 0.35938 0.19765 0.017960 
0.36471 0.36329 0.19980 0.018158 
0.36863 0.36719 0.20195 0.018357 
0.37255 0.37110 0.20410 0.018555 
0.37647 0.37501 0.20624 0.018738 
0.38039 0.37891 0.20839 0.018936 
0.38431 0.38282 0.21054 0.019135 
0.38824 0.38672 0.21270 0.019333 
0.39216 0.39063 0.21485 0.019532 
0.39608 0.39454 0.21698 0.019715 
0.40000 0.39844 0.21913 0.019913 
0.40392 0.40235 0.22129 0.020111 
0.40784 0.40626 0.22344 0.020310 
0.41176 0.41016 0.22559 0.020508 
0.41569 0.41407 0.22773 0.020691 
0.41961 0.41798 0.22988 0.020890 
0.42353 0.42188 0.23203 0.021088 
0.42745 0.42579 0.23418 0.021286 
0.43137 0.42969 0.23633 0.021485 
0.43529 0.43360 0.23847 0.021668 
0.43922 0.43751 0.24062 0.021866 
0.44314 0.44141 0.24277 0.022065 
0.44706 0.44532 0.24492 0.022263 
0.45098 0.44923 0.24707 0.022461 
0.45490 0.45313 0.24921 0.022644 
0.45882 0.45704 0.25136 0.022843 
0.46275 0.46094 0.25351 0.023041 
0.46667 0.46485 0.25566 0.023239 
0.47059 0.46876 0.25782 0.023438 
0.47451 0.47266 0.25995 0.023621 
0.47843 0.47657 0.26210 0.023819 
0.48235 0.48048 0.26426 0.024018 
0.48627 0.48438 0.26641 0.024216 
0.49020 0.48829 0.26856 0.024414 
0.49412 0.49220 0.27070 0.024598 
0.49804 0.49610 0.27285 0.024796 
0.50196 0.50001 0.27500 0.024994 
0.50588 0.50391 0.27715 0.025193 
0.50980 0.50782 0.27930 0.025391 
0.51373 0.51173 0.28144 0.025574 
0.51765 0.51563 0.28359 0.025772 
0.52157 0.51954 0.28574 0.025971 
0.52549 0.52345 0.28789 0.026169 
0.52941 0.52735 0.29004 0.026368 
0.53333 0.53126 0.29218 0.026551 
0.53725 0.53516 0.29433 0.026749 
0.54118 0.53907 0.29648 0.026947 
0.54510 0.54298 0.29863 0.027146 
0.54902 0.54688 0.30079 0.027344 
0.55294 0.55079 0.30292 0.027527 
0.55686 0.55470 0.30507 0.027726 
0.56078 0.55860 0.30723 0.027924 
0.56471 0.56251 0.30938 0.028122 
0.56863 0.56641 0.31153 0.028321 
0.57255 0.57032 0.31366 0.028504 
0.57647 0.57423 0.31582 0.028702 
0.58039 0.57813 0.31797 0.028901 
0.58431 0.58204 0.32012 0.029099 
0.58824 0.58595 0.32227 0.029297 
0.59216 0.58985 0.32441 0.029480 
0.59608 0.59376 0.32656 0.029679 
0.60000 0.59767 0.32871 0.029877 
0.60392 0.60157 0.33086 0.030076 
0.60784 0.60548 0.33301 0.030274 
0.61176 0.60938 0.33515 0.030457 
0.61569 0.61329 0.33730 0.030655 
0.61961 0.61720 0.33945 0.030854 
0.62353 0.62110 0.34160 0.031052 
0.62745 0.62501 0.34376 0.031250 
0.63137 0.62892 0.34589 0.031434 
0.63529 0.63282 0.34804 0.031632 
0.63922 0.63673 0.35019 0.031830 
0.64314 0.64063 0.35235 0.032029 
0.64706 0.64454 0.35450 0.032227 
0.65098 0.64845 0.35663 0.032410 
0.65490 0.65235 0.35879 0.032609 
0.65882 0.65626 0.36094 0.032807 
0.66275 0.66017 0.36309 0.033005 
0.66667 0.66407 0.36524 0.033204 
0.67059 0.66798 0.36738 0.033387 
0.67451 0.67189 0.36953 0.033585 
0.67843 0.67579 0.37168 0.033783 
0.68235 0.67970 0.37383 0.033982 
0.68627 0.68360 0.37598 0.034180 
0.69020 0.68751 0.37812 0.034363 
0.69412 0.69142 0.38027 0.034562 
0.69804 0.69532 0.38242 0.034760 
0.70196 0.69923 0.38457 0.034958 
0.70588 0.70314 0.38672 0.035157 
0.70980 0.70704 0.38886 0.035340 
0.71373 0.71095 0.39101 0.035538 
0.71765 0.71485 0.39316 0.035737 
0.72157 0.71876 0.39532 0.035935 
0.72549 0.72267 0.39747 0.036133 
0.72941 0.72657 0.39960 0.036316 
0.73333 0.73048 0.40175 0.036515 
0.73725 0.73439 0.40391 0.036713 
0.74118 0.73829 0.40606 0.036912 
0.74510 0.74220 0.40821 0.037110 
0.74902 0.74611 0.41035 0.037293 
0.75294 0.75001 0.41250 0.037491 
0.75686 0.75392 0.41465 0.037690 
0.76078 0.75782 0.41680 0.037888 
0.76471 0.76173 0.41895 0.038087 
0.76863 0.76564 0.42109 0.038270 
0.77255 0.76954 0.42324 0.038468 
0.77647 0.77345 0.42539 0.038666 
0.78039 0.77736 0.42754 0.038865 
0.78431 0.78126 0.42969 0.039063 
0.78824 0.78517 0.43183 0.039246 
0.79216 0.78907 0.43398 0.039445 
0.79608 0.79298 0.43613 0.039643 
0.80000 0.79689 0.43828 0.039841 
0.80392 0.80079 0.44044 0.040040 
0.80784 0.80470 0.44257 0.040223 
0.81176 0.80861 0.44472 0.040421 
0.81569 0.81251 0.44688 0.040620 
0.81961 0.81642 0.44903 0.040818 
0.82353 0.82033 0.45118 0.041016 
0.82745 0.82423 0.45332 0.041199 
0.83137 0.82814 0.45547 0.041398 
0.83529 0.83204 0.45762 0.041596 
0.83922 0.83595 0.45977 0.041794 
0.84314 0.83986 0.46192 0.041993 
0.84706 0.84376 0.46406 0.042176 
0.85098 0.84767 0.46621 0.042374 
0.85490 0.85158 0.46836 0.042573 
0.85882 0.85548 0.47051 0.042771 
0.86275 0.85939 0.47266 0.042969 
0.86667 0.86329 0.47480 0.043153 
0.87059 0.86720 0.47695 0.043351 
0.87451 0.87111 0.47910 0.043549 
0.87843 0.87501 0.48125 0.043748 
0.88235 0.87892 0.48341 0.043946 
0.88627 0.88283 0.48554 0.044129 
0.89020 0.88673 0.48769 0.044327 
0.89412 0.89064 0.48985 0.044526 
0.89804 0.89454 0.49200 0.044724 
0.90196 0.89845 0.49415 0.044923 
0.90588 0.90236 0.49628 0.045106 
0.90980 0.90626 0.49844 0.045304 
0.91373 0.91017 0.50059 0.045502 
0.91765 0.91408 0.50274 0.045701 
0.92157 0.91798 0.50489 0.045899 
0.92549 0.92189 0.50703 0.046082 
0.92941 0.92580 0.50918 0.046281 
0.93333 0.92970 0.51133 0.046479 
0.93725 0.93361 0.51348 0.046677 
0.94118 0.93751 0.51563 0.046876 
0.94510 0.94142 0.51777 0.047059 
0.94902 0.94533 0.51992 0.047257 
0.95294 0.94923 0.52207 0.047456 
0.95686 0.95314 0.52422 0.047654 
0.96078 0.95705 0.52638 0.047852 
0.96471 0.96095 0.52851 0.048035 
0.96863 0.96486 0.53066 0.048234 
0.97255 0.96876 0.53281 0.048432 
0.97647 0.97267 0.53497 0.048631 
0.98039 0.97658 0.53712 0.048829 
0.98431 0.98048 0.53925 0.049012 
0.98824 0.98439 0.54141 0.049210 
0.99216 0.98830 0.54356 0.049409 
0.99608 0.99220 0.54571 0.049607 
1.0000 0.99611 0.54786 0.049805 
END_DATA
